X:561
T:Islay House
D:Jim Johnstone, Sound of
Z:Nigel Gatherer
L:1/8
M:6/8
K:A
E    | A>BA AGF | E>FE ECE | A2A  BAB | cAF F2
G    | A>BA AGF | E>FE ECE | AcA  BdB | cAA A2 :|
c/d/ | ecA  AGA | FDD  Dde | f^dB BcA | G2E EFG |
       A>BA AGF | E>FE ECE | AcA  BdB | cAA A2 :|
<end>
<start>
